X:1
T:RVW2/1/9 Broadstriped Trousers (Tarry Trousers)-0
T:RVW2/1/9 Broadstriped Trousers (Tarry Trousers)-0
T:Sung by Jake Willis (Crimean veteran) at Hadleigh, Sept. 3rd and 4th 1907 (3 of 7)
T:Transcribed by Simon Furey and Lewis Jones
C:Transcribed by Simon Furey and Lewis Jones
L:1/8
Q:1/4=72
M:2/4
K:G
V:1 treble 
V:1
"^(Editorial suggestion)""^(a)" D | DE cc |"^(b)" BAG/F/D | G>A G/F/E/D/ | GG A2 | DD cd | GABc | %7
 ED Bc/B/ | AA !fermata!G ||"^(a) var." z | DE cc |"^(b) var." BA/G/FD | G>A G/F/E/D/ | GG A2 | %14
 DD cd | GABc | ED Bc/B/ | AA !fermata!G |] %18

